svg/bookmark.svg

<svg width="24" height="24" viewBox="0 0 24 24" fill="none" xmlns="http://www.w3.org/2000/svg">
<path d="M4 4C4 2.89543 4.89543 2 6 2H18C19.1046 2 20 2.89543 20 4V21C20 21.3746 19.7907 21.7178 19.4576 21.8892C19.1245 22.0606 18.7236 22.0315 18.4188 21.8137L12 17.2289L5.58124 21.8137C5.27642 22.0315 4.87549 22.0606 4.54242 21.8892C4.20935 21.7178 4 21.3746 4 21V4ZM18 4L6 4V19.0568L11.4188 15.1863C11.7665 14.9379 12.2335 14.9379 12.5812 15.1863L18 19.0568V4Z" fill="#0D0D0D"/>
</svg>

<svg width="24" height="24" fill="none" xmlns="http://www.w3.org/2000/svg"><path d="M4 4a2 2 0 012-2h12a2 2 0 012 2v17a1 1 0 01-1.581.814L12 17.229l-6.419 4.585A1 1 0 014 21V4zm14 0H6v15.057l5.419-3.87a1 1 0 011.162 0L18 19.056V4z" fill="#0D0D0D"/></svg>
